!!!SOCIAL_FUNCTION:	songs of the drum-presentation ceremony
!!!PDT:	1913
!!!OTL: No_63_The_Sound_Comes_Pleasingly.krn
!!!REG: Great_Lakes
!!!LANG: Non-Tone
!!!LING_GROUP: Algonquin
**kern	**kern
*staff2	*staff1
=1-	=1-
*clefF4	*clefF4
*k[]	*k[]
*M2/4	*M2/4
12GG^/	8.c\L
12r	.
12GG/	.
.	16c\Jk
12GG^/	8c\L
12r	.
.	8A\J
12GG/	.
=2	=2
12GG^/	8G\L
12r	.
.	8G\J
12GG/	.
12GG^/	4G\
12r	.
12GG/	.
=3	=3
2r	8.G\L
.	16G\Jk
.	4E\
=4	=4
2r	8.G\L
.	16A\Jk
.	(8G\L
.	8E\J)
=5	=5
2r	8C/L
.	8C/J
.	8.C/L
.	16C/Jk
=6	=6
2r	4C/
.	8.C/L
.	16C/Jk
=7	=7
2r	4C/
.	8.G\L
.	16G\Jk
=8	=8
2r	4A\
.	4G\
=9	=9
2r	12E\L
.	12D\
.	12C\J
.	4C/
=10	=10
2r	8.C/L
.	16C/Jk
.	4AA/
=11	=11
2r	8.C/L
.	16D/Jk
.	8C/L
.	8AA/J
=12||	=12||
*M3/4	*M3/4
2.r	8.GG/L
.	16GG/Jk
.	4..GG/
.	16GG/
=13	=13
2.r	2.GG/
==	==
*-	*-
